X:33
T:Old Nick's Lumber Room, or the Pawnbroker's Warehouse
M:6/8
L:1/8
B:Thompson's Compleat Collection of 200 Favourite Country Dances, vol. 2 (London, 1765)
Z:Transcribed and edited by Flynn Titford-Mock, 2007
Z:abc's:AK/Fiddler's Companion
K:A
A3 cAc | eae cAc | E3 GEG | BdB GEG | A3 cAc | eae cAc | faf dBd | e3-[E3e3] :|
|: E3 BGB | BdB GEG | A3 cAc | eae cAc | faf dBd | eae cAc | BdB GEG | A3 [A,3A3] :|

